X: 13240
T: Fisherman's Island, The
R: reel
M: 4/4
K: Dmajor
|:A,DFA dfcA|BAGB AFDF|GEFD EFGA|(3Bcd ed cdeg|
fd (3ddd edcA|BcdB AGFD|EFGA (3Bcd ed|1 cAGE FDCE:|2 cAGE D2z2||
|:fd (3ddd AF (3FFF|DFAd fdef|ge (3eee bece|dfed cAGE|
DF (3FFF Ad (3ddd|B2gf edcB|Adfa gbed|1 cAGE D2 z2:|2 cAGE FDCE||

